packages/kaspersky-hexa-ui-icons/src/iconsSVGs/16/Map.svg

<svg width="16" height="16" viewBox="0 0 16 16" fill="none" xmlns="http://www.w3.org/2000/svg">
<path fill-rule="evenodd" clip-rule="evenodd" d="M6 2C6.07922 2 6.15521 2.01382 6.2257 2.03917L9.97915 3.29032L13.0857 2.04769C13.2911 1.96553 13.5239 1.9906 13.7071 2.11462C13.8903 2.23865 14 2.44545 14 2.66667V11.6667C14 11.9192 13.8573 12.15 13.6315 12.263L10.3101 13.9237C10.2212 13.9704 10.1204 13.9977 10.0135 13.9999C10.0048 14 9.99613 14 9.98745 13.9999C9.98136 13.9998 9.97527 13.9996 9.96919 13.9993C9.88433 13.9954 9.80361 13.9757 9.72991 13.943L6.02524 12.3994L2.96481 13.9296C2.75815 14.033 2.51272 14.0219 2.31618 13.9004C2.11963 13.779 2 13.5644 2 13.3333V4C2 3.7274 2.16597 3.48226 2.41907 3.38102L5.73826 2.05335C5.81861 2.01901 5.90709 2 6 2ZM10.6667 12.2546L12.6667 11.2546V3.65136L10.6667 4.45136V12.2546ZM9.33333 4.48051V12.3333L6.66667 11.2222V3.59162L9.33333 4.48051ZM3.33333 4.45136L5.33333 3.65136V11.2546L3.33333 12.2546V4.45136Z" fill="black"/>
</svg>

<svg xmlns="http://www.w3.org/2000/svg" width="16" height="16" fill="none" viewBox="0 0 16 16"><path fill="#000" fill-rule="evenodd" d="M6 2a.67.67 0 0 1 .2257.0392l3.7535 1.2511 3.1065-1.2426a.6668.6668 0 0 1 .9143.619v9a.667.667 0 0 1-.3685.5963l-3.3214 1.6607a.666.666 0 0 1-.341.0756.66.66 0 0 1-.2392-.0563l-3.7047-1.5436-3.0604 1.5302A.6665.6665 0 0 1 2 13.3333V4c0-.2726.166-.5177.419-.619l3.3193-1.3276A.665.665 0 0 1 6 2m4.6667 10.2546 2-1V3.6514l-2 .8zm-1.3334-7.774v7.8527l-2.6666-1.1111V3.5916zm-6-.0292 2-.8v7.6032l-2 1z"/></svg>
